X:68
T: ES WAREN DREI JUNGGESELLEN
N: Z0069
O: Europa, Mitteleuropa, Deutschland
R: Sagen - Lied, Romanze
M: 2/4
L: 1/8
K: F
C | F2ED | C2F2 | G2F
C | F2ED | C2F2 | G2F
F | AAAA | A2c2 | BBBB | G2z
F | EGGG | G2cB | AAGG | F2z

@@@ Tune index: 9826
